X: 70
T: I Am Required to Roam
C: Teton Sioux band 1911-1914
N: Derived from sioux070.krn
O: South Dakota, U.S.A.
N: Teton Sioux Music by Frances Densmore, 1918
Z: transcribed to **kern format by Craig Sapp
L: 1/8
M: 2/4
Q: 1/4=58
K: B clef=bass
%%linebreak <none>
F/ [I:setbarnb 1]| 
F2F D/ D/ | 
F2F3/ D/ | 
D< F (3(F D) D ||  
[M:3/4](F/ D/) F/ B,/B,2B,2 ||  
[M:2/4]D D (3D C D | 
(3D D D (3D A, B, | 
G,> G,G,2 | 
B, B,/ B,/ (3B, G, G, | 
B,/ B,/ G, (3G, F, F, | 
D,> D,D,2 | 
D,> D, D,/ D,3/ | 
G,/ G,/ F, G,/ F,/ G, | 
D,2D,3/ D,/ | 
D,4 |]  



